X: 1
T: Banshee, The
M: 4/4
L: 1/4
Q: 125
R: reel
K: G
"G" G G/D/ E/D/B,/D/|G/F/G/B/ d B/d/| "C" e/g/ e/d/ B/A/G/A/|"D" B/A/G/E/ E/D/B,/D/| "G" G G/D/ E/D/B,/D/| G/F/G/B/ d B/d/| "C" e/g/e/d/ B/A/G/A/| "D" B/A/G/E/ E/D/ D:|: "C" e/a/a/g/ "D" e/f/g/e/| "Em" d/B/B/A/ B>d|e/B/B/B/ e/B/"D"g/B/| "Em" e/B/B/A/ B> d| "C" e/a/a/g/ "D" e/f/g/e/ | "Em" d/B/B/A/ B> d| "C" e/g/e/d/ B/A/G/A/| "D" B/A/G/E/ E/D/B,/D/:|| "END G" G4||
